img/email.svg

<svg width="48" height="48" viewBox="0 0 48 48" fill="none" xmlns="http://www.w3.org/2000/svg">
<rect width="48" height="48" rx="24" fill="#D028DE"/>
<path d="M24.3499 38.3584C22.0172 38.3584 19.9404 38.0416 18.1196 37.4081C16.2987 36.7818 14.7594 35.8607 13.5017 34.6445C12.2439 33.4357 11.286 31.9575 10.6278 30.2098C9.96969 28.4621 9.64062 26.4741 9.64062 24.2458C9.64062 22.0466 9.96969 20.0513 10.6278 18.2599C11.2933 16.4685 12.2622 14.932 13.5346 13.6504C14.807 12.3615 16.3609 11.3711 18.1963 10.6793C20.0391 9.9875 22.1378 9.6416 24.4925 9.6416C26.6716 9.6416 28.6168 9.95837 30.3279 10.5919C32.0463 11.2255 33.5015 12.1284 34.6935 13.3008C35.8928 14.466 36.8032 15.8532 37.4247 17.4625C38.0536 19.0646 38.3644 20.8378 38.3571 22.7821C38.3644 24.122 38.2474 25.3526 38.0061 26.4741C37.7648 27.5955 37.3845 28.575 36.8653 29.4124C36.3535 30.2425 35.6807 30.9016 34.8471 31.3895C34.0134 31.8701 33.0043 32.1432 31.8197 32.2087C30.9714 32.2742 30.284 32.2123 29.7575 32.023C29.231 31.8337 28.8288 31.5533 28.5509 31.1819C28.2804 30.8033 28.1049 30.3627 28.0244 29.8602H27.8928C27.7173 30.2972 27.3736 30.694 26.8617 31.0509C26.3499 31.4004 25.7246 31.6735 24.9861 31.8701C24.2548 32.0594 23.476 32.1286 22.6497 32.0776C21.7868 32.0266 20.9678 31.8264 20.1927 31.4769C19.4248 31.1273 18.7411 30.6212 18.1415 29.9585C17.5492 29.2959 17.0812 28.4766 16.7375 27.5008C16.4011 26.5251 16.2293 25.3963 16.2219 24.1147C16.2293 22.8476 16.4084 21.7444 16.7594 20.805C17.1177 19.8656 17.5894 19.0755 18.1744 18.4347C18.7667 17.7939 19.4248 17.2914 20.1488 16.9273C20.8727 16.5632 21.6003 16.3302 22.3316 16.2282C23.1579 16.1044 23.9404 16.1044 24.6789 16.2282C25.4175 16.352 26.0391 16.5523 26.5436 16.829C27.0555 17.1057 27.3736 17.4043 27.4979 17.7247H27.6515V16.5013H31.0847V27.1622C31.0921 27.6647 31.2054 28.0543 31.4248 28.331C31.6442 28.6077 31.9403 28.7461 32.3133 28.7461C32.8178 28.7461 33.2383 28.524 33.5747 28.0798C33.9184 27.6356 34.1743 26.9547 34.3425 26.0372C34.518 25.1196 34.6057 23.9508 34.6057 22.5308C34.6057 21.1618 34.4229 19.9603 34.0573 18.9262C33.699 17.8849 33.1944 17.0001 32.5436 16.2719C31.9001 15.5364 31.1506 14.9393 30.295 14.4805C29.4394 14.0218 28.5107 13.6868 27.5089 13.4756C26.5144 13.2644 25.4906 13.1588 24.4376 13.1588C22.6168 13.1588 21.0263 13.4356 19.6662 13.989C18.306 14.5351 17.1726 15.3034 16.2658 16.2938C15.3591 17.2841 14.679 18.4456 14.2256 19.7782C13.7795 21.1036 13.5529 22.549 13.5455 24.1147C13.5529 25.8405 13.7942 27.3698 14.2695 28.7024C14.7521 30.0277 15.4614 31.1419 16.3974 32.0449C17.3335 32.9478 18.4888 33.6323 19.8636 34.0984C21.2384 34.5644 22.8179 34.7975 24.6021 34.7975C25.4431 34.7975 26.2658 34.7356 27.0701 34.6118C27.8745 34.4953 28.6021 34.3496 29.2529 34.1749C29.9038 34.0074 30.4266 33.8435 30.8215 33.6833L31.9074 36.851C31.4467 37.1132 30.8215 37.3571 30.0317 37.5829C29.2493 37.8159 28.3645 38.0016 27.3773 38.1399C26.3974 38.2856 25.3883 38.3584 24.3499 38.3584ZM23.8453 28.4839C24.7374 28.4839 25.4468 28.3128 25.9733 27.9705C26.5071 27.6283 26.8873 27.1222 27.114 26.4522C27.348 25.775 27.4577 24.9412 27.4431 23.9508C27.4358 23.077 27.3224 22.3379 27.103 21.7335C26.891 21.1218 26.5217 20.6594 25.9952 20.3462C25.476 20.0258 24.7521 19.8656 23.8234 19.8656C23.0117 19.8656 22.3206 20.0367 21.7502 20.379C21.1872 20.7213 20.7557 21.2019 20.4559 21.8208C20.1634 22.4325 20.0135 23.1535 20.0062 23.9836C20.0135 24.7555 20.1378 25.4874 20.3791 26.1792C20.6205 26.8637 21.019 27.4207 21.5747 27.8504C22.1305 28.2727 22.8874 28.4839 23.8453 28.4839Z" fill="white"/>
</svg>

<svg xmlns="http://www.w3.org/2000/svg" width="48" height="48" fill="none"><rect width="48" height="48" fill="#D028DE" rx="24"/><path fill="#fff" d="M24.35 38.358c-2.333 0-4.41-.316-6.23-.95-1.821-.626-3.36-1.547-4.618-2.764-1.258-1.208-2.216-2.686-2.874-4.434-.658-1.748-.987-3.736-.987-5.964 0-2.2.329-4.195.987-5.986.665-1.792 1.634-3.328 2.907-4.61 1.272-1.289 2.826-2.279 4.661-2.97 1.843-.692 3.942-1.038 6.296-1.038 2.18 0 4.125.316 5.836.95 1.718.633 3.174 1.536 4.366 2.709a11.501 11.501 0 0 1 2.73 4.161c.63 1.603.94 3.376.933 5.32.007 1.34-.11 2.57-.35 3.692-.242 1.122-.622 2.101-1.142 2.938a5.753 5.753 0 0 1-2.018 1.978c-.834.48-1.843.753-3.027.819-.849.065-1.536.003-2.063-.186-.526-.19-.928-.47-1.206-.841a3.074 3.074 0 0 1-.527-1.322h-.131c-.176.437-.52.834-1.031 1.19-.512.35-1.137.623-1.876.82-.731.19-1.51.259-2.336.208a6.92 6.92 0 0 1-2.457-.601 6.236 6.236 0 0 1-2.052-1.518c-.592-.663-1.06-1.482-1.403-2.458-.337-.976-.509-2.105-.516-3.386.007-1.267.186-2.37.537-3.31.359-.94.83-1.73 1.415-2.37a6.913 6.913 0 0 1 1.975-1.508 6.996 6.996 0 0 1 2.183-.699 7.458 7.458 0 0 1 2.347 0c.739.124 1.36.324 1.865.601.511.277.83.575.954.896h.153V16.5h3.434v10.661c.007.503.12.892.34 1.169.22.277.515.415.888.415.505 0 .925-.222 1.262-.666.343-.444.6-1.125.767-2.043.176-.917.264-2.086.264-3.506 0-1.37-.183-2.57-.549-3.605-.358-1.041-.863-1.926-1.513-2.654a7.97 7.97 0 0 0-2.249-1.791 10.405 10.405 0 0 0-2.786-1.005 14.745 14.745 0 0 0-3.071-.317c-1.821 0-3.412.277-4.772.83-1.36.546-2.493 1.314-3.4 2.305a9.738 9.738 0 0 0-2.04 3.484c-.447 1.326-.673 2.771-.68 4.337.007 1.726.248 3.255.724 4.587.482 1.326 1.191 2.44 2.127 3.343.937.903 2.092 1.587 3.467 2.053 1.374.466 2.954.7 4.738.7.841 0 1.664-.062 2.468-.186a18.915 18.915 0 0 0 2.183-.437c.65-.168 1.174-.331 1.569-.492l1.085 3.168c-.46.262-1.085.506-1.875.732-.783.233-1.668.419-2.655.557-.98.146-1.989.218-3.027.218Zm-.505-9.874c.892 0 1.602-.171 2.128-.514.534-.342.914-.848 1.141-1.518.234-.677.344-1.51.33-2.501-.008-.874-.122-1.613-.341-2.218-.212-.611-.581-1.074-1.108-1.387-.519-.32-1.243-.48-2.172-.48-.811 0-1.502.17-2.073.513a3.358 3.358 0 0 0-1.294 1.442c-.293.611-.442 1.332-.45 2.163.008.771.132 1.503.373 2.195a3.56 3.56 0 0 0 1.196 1.671c.556.423 1.312.634 2.27.634Z"/></svg>
